10/img/vectors/telegram.svg

<svg width="48" height="48" viewBox="0 0 48 48" fill="none" xmlns="http://www.w3.org/2000/svg">
<rect width="48" height="48" fill="#81B3D2"/>
<path d="M34.4393 16.6223L31.2705 31.566C31.0313 32.6205 30.408 32.883 29.5223 32.3865L24.6938 28.8285L22.3643 31.0695C22.1063 31.3275 21.891 31.5428 21.3938 31.5428L21.741 26.6258L30.6893 18.54C31.0785 18.1935 30.6045 18.0008 30.0848 18.348L19.0223 25.314L14.2598 23.823C13.224 23.4998 13.2053 22.7873 14.4758 22.29L33.1035 15.1133C33.966 14.79 34.7205 15.3053 34.4393 16.623V16.6223Z" fill="white"/>
</svg>

<svg width="48" height="48" fill="none" xmlns="http://www.w3.org/2000/svg"><path fill="#81B3D2" d="M0 0h48v48H0z"/><path d="M34.44 16.622l-3.17 14.944c-.239 1.055-.862 1.317-1.748.82l-4.828-3.558-2.33 2.242c-.258.258-.473.473-.97.473l.347-4.917 8.948-8.086c.39-.346-.084-.54-.604-.192l-11.063 6.966-4.762-1.491c-1.036-.323-1.055-1.036.216-1.533l18.627-7.177c.863-.323 1.617.192 1.336 1.51z" fill="#fff"/></svg>
